X: 142
Q: "Slow"
M: C
L: 1/8
K: Eb
c |\
[1 C>E {c}BA/G/ TF2 E :|[2 B,>e {c}BA/G/ TF2E ||
a |\
g<ee>c B<GTG>F | EeBG TF>ECa | g<ee>c B<GG>F | Ee {c}BA/G/ TF2E>a |
g<ee>c B<GG>F | EeBG TF>ECF | E<B,E>F G>Bce | B<E {c}BA/G/ TF2E |]


